img/wifiguard/addNote.svg

<svg xmlns="http://www.w3.org/2000/svg" height="24" viewBox="0 0 24 24" width="24"><path d="M0 0h24v24H0z" fill="none"/><path d="M14,2h-8c-1,0 -2,1 -2,2v16c0,1 1,2 2,2h12c1,0 2,-1 2,-2v-12zM16,16h-3v3h-2v-3h-3v-2h3v-3h2v3h3v2zM13,9v-5.5l5.5,5.5z"/></svg>

<svg xmlns="http://www.w3.org/2000/svg" height="24" viewBox="0 0 24 24" width="24"><path d="M0 0h24v24H0z" fill="none"/><path d="M14 2H6C5 2 4 3 4 4v16c0 1 1 2 2 2h12c1 0 2-1 2-2V8zm2 14h-3v3h-2v-3H8v-2h3v-3h2v3h3v2zm-3-7V3.5L18.5 9z"/></svg>
